src/com/lilithsthrone/res/perks/attSeduction5.svg

<?xml version="1.0" encoding="UTF-8" standalone="no"?>
<!-- Created with Inkscape (http://www.inkscape.org/) -->

<svg
   xmlns:dc="http://purl.org/dc/elements/1.1/"
   xmlns:cc="http://creativecommons.org/ns#"
   xmlns:rdf="http://www.w3.org/1999/02/22-rdf-syntax-ns#"
   xmlns:svg="http://www.w3.org/2000/svg"
   xmlns="http://www.w3.org/2000/svg"
   xmlns:sodipodi="http://sodipodi.sourceforge.net/DTD/sodipodi-0.dtd"
   xmlns:inkscape="http://www.inkscape.org/namespaces/inkscape"
   width="100%"
   height="100%"
   viewBox="0 0 64.000001 64.000001"
   id="svg4311"
   version="1.1"
   inkscape:version="0.91 r13725"
   sodipodi:docname="attSeduction5.svg">
  <defs
     id="defs4313">
    <inkscape:path-effect
       effect="powerstroke"
       id="path-effect4183"
       is_visible="true"
       offset_points="0.238227,0.51804536"
       sort_points="true"
       interpolator_type="Linear"
       interpolator_beta="0.2"
       start_linecap_type="zerowidth"
       linejoin_type="round"
       miter_limit="4"
       end_linecap_type="zerowidth"
       cusp_linecap_type="round" />
  </defs>
  <sodipodi:namedview
     id="base"
     pagecolor="#ffffff"
     bordercolor="#666666"
     borderopacity="1.0"
     inkscape:pageopacity="0.0"
     inkscape:pageshadow="2"
     inkscape:zoom="5.6"
     inkscape:cx="26.236428"
     inkscape:cy="30.889266"
     inkscape:document-units="px"
     inkscape:current-layer="layer5"
     showgrid="false"
     units="px"
     inkscape:window-width="2560"
     inkscape:window-height="1388"
     inkscape:window-x="-8"
     inkscape:window-y="-8"
     inkscape:window-maximized="1" />
  <metadata
     id="metadata4316">
    <rdf:RDF>
      <cc:Work
         rdf:about="">
        <dc:format>image/svg+xml</dc:format>
        <dc:type
           rdf:resource="http://purl.org/dc/dcmitype/StillImage" />
        <dc:title></dc:title>
      </cc:Work>
    </rdf:RDF>
  </metadata>
  <g
     inkscape:groupmode="layer"
     id="layer5"
     inkscape:label="Stage5"
     style="display:inline">
    <path
       style="display:inline;fill:#ff8080;fill-opacity:1;fill-rule:evenodd;stroke:#000000;stroke-width:0.90249991;stroke-linecap:butt;stroke-linejoin:miter;stroke-miterlimit:4;stroke-dasharray:none;stroke-opacity:1"
       d="m 14.832537,47.799113 c -4.084304,-5.905719 4.697211,-8.768528 8.009526,-4.148984 -1.013801,-5.429778 7.170478,-8.127914 8.795278,-1.123782 C 32.883767,47.89941 26.832588,49.720826 28.09866,57.89638 23.546247,50.823789 18.014312,52.399803 14.832537,47.799113 Z"
       id="path4297-8"
       inkscape:connector-curvature="0"
       sodipodi:nodetypes="scscs"
       inkscape:transform-center-x="6.4934413"
       inkscape:transform-center-y="-0.70836129" />
    <path
       style="display:inline;fill:#ffffff;fill-opacity:0.78504675;fill-rule:evenodd;stroke:none;stroke-width:1px;stroke-linecap:butt;stroke-linejoin:miter;stroke-opacity:1"
       d="m 30.178877,44.20908 c -0.402853,-3.59508 -2.531884,-4.431266 -5.79826,-3.257573 2.8279,-2.487923 6.877489,-1.569443 5.79826,3.257573 z"
       id="path4299-5"
       inkscape:connector-curvature="0"
       sodipodi:nodetypes="ccc"
       inkscape:transform-center-x="-1.6555591"
       inkscape:transform-center-y="-7.7790063" />
    <path
       style="display:inline;fill:#ff8080;fill-opacity:1;fill-rule:evenodd;stroke:#000000;stroke-width:0.90249997;stroke-linecap:butt;stroke-linejoin:miter;stroke-miterlimit:4;stroke-dasharray:none;stroke-opacity:1"
       d="m 34.485545,28.263312 c 0.67982,-9.333211 12.2637,-5.086532 11.854827,2.309825 3.491953,-6.346738 14.313192,-2.419406 10.14032,6.025963 C 53.27957,43.077774 45.424171,39.997646 39.894049,49.341621 41.062594,38.440525 33.955961,35.534103 34.485545,28.263312 Z"
       id="path4297-8-6"
       inkscape:connector-curvature="0"
       sodipodi:nodetypes="scscs"
       inkscape:transform-center-x="2.4380275"
       inkscape:transform-center-y="-4.8318616" />
    <path
       style="display:inline;fill:#ffffff;fill-opacity:0.78504675;fill-rule:evenodd;stroke:none;stroke-width:1px;stroke-linecap:butt;stroke-linejoin:miter;stroke-opacity:1"
       d="m 53.54466,37.121224 c 2.592725,-3.983454 1.067206,-6.56885 -3.332796,-8.037788 5.043263,-0.224615 8.508313,4.009783 3.332796,8.037788 z"
       id="path4299-5-5"
       inkscape:connector-curvature="0"
       sodipodi:nodetypes="ccc"
       inkscape:transform-center-x="-8.9468219"
       inkscape:transform-center-y="-5.8905369" />
    <path
       style="display:inline;fill:#ff8080;fill-opacity:1;fill-rule:evenodd;stroke:#000000;stroke-width:0.90249997;stroke-linecap:butt;stroke-linejoin:miter;stroke-miterlimit:4;stroke-dasharray:none;stroke-opacity:1"
       d="M 8.8443618,21.251267 C 1.9866032,13.163244 14.692413,7.3755157 20.231701,13.681705 18.010109,5.7698852 29.847865,0.33104928 33.185874,10.481882 35.746551,18.268862 26.971388,22.031727 29.928523,33.989641 22.220582,24.244765 14.186726,27.552019 8.8443618,21.251267 Z"
       id="path4297-8-6-4"
       inkscape:connector-curvature="0"
       sodipodi:nodetypes="scscs"
       inkscape:transform-center-x="10.291678"
       inkscape:transform-center-y="-0.88670116" />
    <path
       style="display:inline;fill:#ffffff;fill-opacity:0.78504675;fill-rule:evenodd;stroke:none;stroke-width:1px;stroke-linecap:butt;stroke-linejoin:miter;stroke-opacity:1"
       d="M 31.233833,13.241362 C 30.162703,7.9563466 26.881744,7.0802156 22.16994,9.3951473 26.056397,5.1987267 32.208988,5.8642353 31.233833,13.241362 Z"
       id="path4299-5-5-4"
       inkscape:connector-curvature="0"
       sodipodi:nodetypes="ccc"
       inkscape:transform-center-x="-1.4539645"
       inkscape:transform-center-y="-12.18313" />
  </g>
</svg>

<svg xmlns="http://www.w3.org/2000/svg" viewBox="0 0 64 64">
    <g fill-rule="evenodd">
        <path fill="#ff8080" stroke="#000" stroke-width=".902" d="M14.833 47.8c-4.085-5.907 4.697-8.77 8.01-4.15-1.015-5.43 7.17-8.128 8.794-1.124 1.247 5.373-4.804 7.195-3.538 15.37C23.546 50.824 18.014 52.4 14.833 47.8z"/>
        <path fill="#fff" fill-opacity=".785" d="M30.179 44.21c-.403-3.596-2.532-4.432-5.798-3.258 2.828-2.488 6.877-1.57 5.798 3.257z"/>
        <path fill="#ff8080" stroke="#000" stroke-width=".902" d="M34.486 28.263c.68-9.333 12.263-5.086 11.854 2.31 3.492-6.347 14.314-2.42 10.14 6.026-3.2 6.479-11.056 3.399-16.586 12.743 1.169-10.901-5.938-13.808-5.408-21.079z"/>
        <path fill="#fff" fill-opacity=".785" d="M53.545 37.121c2.592-3.983 1.067-6.569-3.333-8.038 5.043-.224 8.508 4.01 3.333 8.038z"/>
        <path fill="#ff8080" stroke="#000" stroke-width=".902" d="M8.844 21.251c-6.857-8.088 5.848-13.875 11.388-7.57-2.222-7.911 9.616-13.35 12.954-3.2 2.56 7.788-6.215 11.55-3.257 23.509-7.708-9.745-15.742-6.438-21.085-12.739z"/>
        <path fill="#fff" fill-opacity=".785" d="M31.234 13.241c-1.071-5.285-4.352-6.16-9.064-3.846 3.886-4.196 10.039-3.53 9.064 3.846z"/>
    </g>
</svg>
